X:241
T:Morgan Rattle. VWMLa.241
%%VWML:Anon2-3049-p159-0
F:http://www.vwml.org/record/Anon2/3049/p159
R:Jig
S:Anon. MS, late 18thC, Vaughan Williams Mem. Library
O:England;Yorkshire
Z:vmp/efdss.Simon Wilson. Reviewed PJH 2008.
M:6/8
L:1/8
Q:3/8=120
K:D
AGF EFG|FEF D2A|AGF EFA|B2A Bcd|\
AGF EFG|FEFD2d|dcB edc|B2A Bcd:|
|:d2e fed|c2d edc|d2e fed|f2d fga|\
d2e fed|c2d ecA|fed cBA|B2A Bcd||
D2d dcd|E2e ede|D2d dcd|B2A Bcd|\
D2d dcd|E2e ede|fed cBA|B2A Bcd|]
